svg/endPortalFrameSide.svg

<?xml version="1.0" encoding="UTF-8" standalone="no"?>
<!-- Created with Inkscape (http://www.inkscape.org/) -->

<svg
   width="32"
   height="32"
   viewBox="0 0 8.4666666 8.4666668"
   version="1.1"
   id="svg5"
   inkscape:version="1.2 (dc2aeda, 2022-05-15)"
   sodipodi:docname="endPortalFrameSide.svg"
   xmlns:inkscape="http://www.inkscape.org/namespaces/inkscape"
   xmlns:sodipodi="http://sodipodi.sourceforge.net/DTD/sodipodi-0.dtd"
   xmlns="http://www.w3.org/2000/svg"
   xmlns:svg="http://www.w3.org/2000/svg"
   xmlns:rdf="http://www.w3.org/1999/02/22-rdf-syntax-ns#"
   xmlns:cc="http://creativecommons.org/ns#">
  <sodipodi:namedview
     id="namedview7"
     pagecolor="#ffffff"
     bordercolor="#111111"
     borderopacity="1"
     inkscape:pageshadow="0"
     inkscape:pageopacity="0"
     inkscape:pagecheckerboard="1"
     inkscape:document-units="mm"
     showgrid="true"
     width="32mm"
     units="px"
     objecttolerance="10000"
     guidetolerance="10000"
     inkscape:snap-perpendicular="true"
     inkscape:snap-tangential="true"
     inkscape:zoom="34.90625"
     inkscape:cx="16.028648"
     inkscape:cy="13.851388"
     inkscape:window-width="2560"
     inkscape:window-height="1301"
     inkscape:window-x="0"
     inkscape:window-y="25"
     inkscape:window-maximized="0"
     inkscape:current-layer="layer1"
     inkscape:showpageshadow="0"
     inkscape:deskcolor="#d1d1d1">
    <inkscape:grid
       type="xygrid"
       id="grid9"
       units="px"
       empspacing="4" />
  </sodipodi:namedview>
  <defs
     id="defs2" />
  <g
     inkscape:label="Layer 1"
     inkscape:groupmode="layer"
     id="layer1">
    <path
       id="path10865"
       style="fill:#000000;fill-opacity:1;stroke-width:0"
       d="M 0 1.5875 L 0 2.1166667 L 0.30540771 2.4220744 A 1.8520833 1.8520833 0 0 0 0 3.4395833 A 1.8520833 1.8520833 0 0 0 1.8520833 5.2916667 L 6.6145833 5.2916667 A 1.8520833 1.8520833 0 0 0 8.4666667 3.4395833 A 1.8520833 1.8520833 0 0 0 8.1617757 2.4215576 L 8.4666667 2.1166667 L 8.4666667 1.5875 L 7.9375 1.5875 L 7.632609 1.892391 A 1.8520833 1.8520833 0 0 0 6.6145833 1.5875 L 1.8520833 1.5875 A 1.8520833 1.8520833 0 0 0 0.83457438 1.8929077 L 0.52916667 1.5875 L 0 1.5875 z M 1.8520833 2.6458333 L 6.6145833 2.6458333 A 0.79374999 0.79374999 0 0 1 7.4083333 3.4395833 A 0.79374999 0.79374999 0 0 1 6.6145833 4.2333333 L 1.8520833 4.2333333 A 0.79374999 0.79374999 0 0 1 1.0583333 3.4395833 A 0.79374999 0.79374999 0 0 1 1.8520833 2.6458333 z " />
  </g>
  <metadata
     id="metadata33">
    <rdf:RDF>
      <cc:Work
         rdf:about="">
        <cc:license
           rdf:resource="http://creativecommons.org/licenses/by-sa/4.0/" />
      </cc:Work>
      <cc:License
         rdf:about="http://creativecommons.org/licenses/by-sa/4.0/">
        <cc:permits
           rdf:resource="http://creativecommons.org/ns#Reproduction" />
        <cc:permits
           rdf:resource="http://creativecommons.org/ns#Distribution" />
        <cc:requires
           rdf:resource="http://creativecommons.org/ns#Notice" />
        <cc:requires
           rdf:resource="http://creativecommons.org/ns#Attribution" />
        <cc:permits
           rdf:resource="http://creativecommons.org/ns#DerivativeWorks" />
        <cc:requires
           rdf:resource="http://creativecommons.org/ns#ShareAlike" />
      </cc:License>
    </rdf:RDF>
  </metadata>
</svg>

<svg width="32" height="32" viewBox="0 0 8.467 8.467" xmlns="http://www.w3.org/2000/svg"><path style="fill:#000;fill-opacity:1;stroke-width:0" d="M0 1.587v.53l.305.305A1.852 1.852 0 0 0 0 3.44a1.852 1.852 0 0 0 1.852 1.852h4.763A1.852 1.852 0 0 0 8.467 3.44a1.852 1.852 0 0 0-.305-1.018l.305-.305v-.53h-.53l-.304.305a1.852 1.852 0 0 0-1.018-.304H1.852a1.852 1.852 0 0 0-1.017.305l-.306-.306H0zm1.852 1.059h4.763a.794.794 0 0 1 .793.794.794.794 0 0 1-.793.793H1.852a.794.794 0 0 1-.794-.793.794.794 0 0 1 .794-.794z"/></svg>
